**kern	**kern	**kern	**kern
*staff3	*staff4	*staff1	*staff2
*clefF4	*clefF4	*clefG2	*clefG2
*k[f#c#]	*k[f#c#]	*k[f#c#]	*k[f#c#]
*M2/4	*M2/4	*M2/4	*M2/4
*D:	*D:	*D:	*D:
=-	=-	=-	=-
4D 4F#	[2D	(4ff#	4a
4E 4G	.	8cc#L	4g
.	.	8eeJ	.
=17	=17	=17	=17
4F# 4A	2D_	4dd	4a
4F# 4A#	.	8a#L	4d
.	.	8cc#J	.
=18	=18	=18	=18
4G 4B	2D_	4b	4d
4E# 4G#	.	8ddL	[4d 4g#
.	.	[8bJ	.
=19	=19	=19	=19
8F# 8A	8D]	8bL]	8d]
8r	8r	8aJ	8r
4r	4r	8f#L	4r
.	.	8dJ)	.
=20	=20	=20	=20
4.F# 4.A	8r	2r	8r
.	(8C#	.	(8f#
.	8DL	.	8dL
8r	8BBJ)	.	8GJ)
=21	=21	=21	=21
4.E	(8AAL	(4g	4A 4c#
.	8BBJ	.	.
.	8AAL	8eL	4e
8C#	8GGJ	[8aJ	.
=22	=22	=22	=22
8D	8FF#L	8aL]	8dL
8r	8EEJ	8cc#J	8gJ
4r	8DDL	8ddL)	8f#L
.	8FF#J	[8f#J	[8dJ
=23	=23	=23	=23
4r	4.AA)	8f#L]	4d]
.	.	8gJ	.
8r	.	8e	8c#
8A	8r	8r	8r
=24:|!|:	=24:|!|:	=24:|!|:	=24:|!|:
*-	*-	*-	*-
